packages/bezier-icons/icons/signal-locked.svg

<svg width="24" height="24" viewBox="0 0 24 24" fill="none" xmlns="http://www.w3.org/2000/svg">
<path fill-rule="evenodd" clip-rule="evenodd" d="M6.34315 17.6568C3.21895 14.5326 3.21895 9.46729 6.34315 6.34309C6.73367 5.95257 6.73367 5.3194 6.34315 4.92888C5.95262 4.53836 5.31946 4.53836 4.92893 4.92888C1.02369 8.83412 1.02369 15.1658 4.92893 19.071C5.31946 19.4615 5.95262 19.4615 6.34315 19.071C6.73367 18.6805 6.73367 18.0473 6.34315 17.6568ZM9.17156 9.17152C7.60947 10.7336 7.60947 13.2663 9.17156 14.8284C9.56209 15.2189 9.56209 15.8521 9.17156 16.2426C8.78104 16.6331 8.14787 16.6331 7.75735 16.2426C5.4142 13.8994 5.4142 10.1005 7.75735 7.75731C8.14787 7.36678 8.78104 7.36678 9.17156 7.75731C9.56209 8.14783 9.56209 8.781 9.17156 9.17152ZM14 11.9999C14 13.1045 13.1046 13.9999 12 13.9999C10.8954 13.9999 10 13.1045 10 11.9999C10 10.8954 10.8954 9.99995 12 9.99995C13.1046 9.99995 14 10.8954 14 11.9999ZM19.5 15V14.5C19.5 13.9477 19.0523 13.5 18.5 13.5C17.9477 13.5 17.5 13.9477 17.5 14.5V15H19.5ZM21 15.0854V14.5C21 13.1193 19.8807 12 18.5 12C17.1193 12 16 13.1193 16 14.5V15.0854C15.4174 15.2913 15 15.8469 15 16.5V19.5C15 20.3284 15.6716 21 16.5 21H20.5C21.3284 21 22 20.3284 22 19.5V16.5C22 15.8469 21.5826 15.2913 21 15.0854ZM14.8284 7.75288C15.2189 7.36236 15.8521 7.36236 16.2426 7.75288C16.79 8.30024 17.2107 8.92902 17.503 9.60129C17.7233 10.1078 17.4912 10.6969 16.9847 10.9171C16.4782 11.1373 15.8891 10.9053 15.6689 10.3988C15.475 9.95284 15.1955 9.53416 14.8284 9.1671C14.4379 8.77657 14.4379 8.14341 14.8284 7.75288ZM19.0711 4.93294C18.6805 4.54241 18.0474 4.54241 17.6568 4.93294C17.2663 5.32346 17.2663 5.95663 17.6568 6.34715C18.7639 7.45423 19.4774 8.80234 19.8001 10.2217C19.9226 10.7603 20.4584 11.0976 20.997 10.9751C21.5355 10.8527 21.8728 10.3169 21.7504 9.77832C21.3465 8.00207 20.4525 6.31434 19.0711 4.93294Z" fill="#313234"/>
</svg>

<svg xmlns="http://www.w3.org/2000/svg" width="24" height="24" fill="none" viewBox="0 0 24 24"><path fill="#313234" fill-rule="evenodd" d="M6.343 17.657a8 8 0 0 1 0-11.314A1 1 0 0 0 4.93 4.93c-3.905 3.905-3.905 10.237 0 14.142a1 1 0 0 0 1.414-1.414m2.829-8.485a4 4 0 0 0 0 5.656 1 1 0 1 1-1.415 1.415 6 6 0 0 1 0-8.486 1 1 0 1 1 1.415 1.415M14 12a2 2 0 1 1-4 0 2 2 0 0 1 4 0m5.5 3v-.5a1 1 0 1 0-2 0v.5zm1.5.085V14.5a2.5 2.5 0 0 0-5 0v.585a1.5 1.5 0 0 0-1 1.415v3a1.5 1.5 0 0 0 1.5 1.5h4a1.5 1.5 0 0 0 1.5-1.5v-3a1.5 1.5 0 0 0-1-1.415m-6.172-7.332a1 1 0 0 1 1.415 0 6 6 0 0 1 1.26 1.848 1 1 0 1 1-1.834.798 4 4 0 0 0-.84-1.232 1 1 0 0 1 0-1.414m4.243-2.82a1 1 0 0 0-1.414 1.414 7.96 7.96 0 0 1 2.143 3.875 1 1 0 0 0 1.95-.444 9.96 9.96 0 0 0-2.679-4.845" clip-rule="evenodd"/></svg>
